static/img/menus/ico-biostarx-logo.svg

<svg width="20" height="21" viewBox="0 0 20 21" fill="none" xmlns="http://www.w3.org/2000/svg">
<g clip-path="url(#clip0_942_2)">
<path d="M10.001 14.372L1.02303 19.898C0.895224 19.977 0.744503 20.0105 0.595283 19.9931C0.446062 19.9757 0.307083 19.9084 0.200854 19.8022C0.094625 19.696 0.0273688 19.557 0.00997827 19.4078C-0.00741231 19.2586 0.0260812 19.1078 0.105034 18.98L5.63003 10.003L0.105034 1.02302C0.0261478 0.895136 -0.0073188 0.74439 0.0100412 0.595139C0.0274012 0.445887 0.0945741 0.306846 0.200707 0.200482C0.30684 0.0941183 0.445733 0.0266431 0.594947 0.00895832C0.744161 -0.00872647 0.894979 0.0244121 1.02303 0.10302L10.001 5.62802L18.979 0.10302C19.1068 0.0240671 19.2576 -0.00942647 19.4068 0.00796411C19.556 0.0253547 19.695 0.0926109 19.8012 0.19884C19.9074 0.305068 19.9747 0.444048 19.9921 0.593268C20.0095 0.742489 19.976 0.89321 19.897 1.02102L14.372 10.003L19.897 18.981C19.976 19.1088 20.0095 19.2596 19.9921 19.4088C19.9747 19.558 19.9074 19.697 19.8012 19.8032C19.695 19.9094 19.556 19.9767 19.4068 19.9941C19.2576 20.0115 19.1068 19.978 18.979 19.899L10.001 14.374V14.372Z" fill="black"/>
<path d="M10.001 14.872L1.02303 20.398C0.895224 20.477 0.744503 20.5105 0.595283 20.4931C0.446062 20.4757 0.307083 20.4084 0.200854 20.3022C0.094625 20.196 0.0273688 20.057 0.00997827 19.9078C-0.00741231 19.7586 0.0260812 19.6078 0.105034 19.48L5.63003 10.503L0.105034 1.52302C0.0261478 1.39514 -0.0073188 1.24439 0.0100412 1.09514C0.0274012 0.945887 0.0945741 0.806846 0.200707 0.700482C0.30684 0.594118 0.445733 0.526643 0.594947 0.508958C0.744161 0.491274 0.894979 0.524412 1.02303 0.60302L10.001 6.12802L18.979 0.60302C19.1068 0.524067 19.2576 0.490574 19.4068 0.507964C19.556 0.525355 19.695 0.592611 19.8012 0.69884C19.9074 0.805068 19.9747 0.944048 19.9921 1.09327C20.0095 1.24249 19.976 1.39321 19.897 1.52102L14.372 10.503L19.897 19.481C19.976 19.6088 20.0095 19.7596 19.9921 19.9088C19.9747 20.058 19.9074 20.197 19.8012 20.3032C19.695 20.4094 19.556 20.4767 19.4068 20.4941C19.2576 20.5115 19.1068 20.478 18.979 20.399L10.001 14.874V14.872Z" fill="url(#paint0_linear_942_2)"/>
</g>
<defs>
<linearGradient id="paint0_linear_942_2" x1="15.7984" y1="20.4986" x2="4.99992" y2="0.505286" gradientUnits="userSpaceOnUse">
<stop stop-color="#F649C2"/>
<stop offset="0.477" stop-color="#8E3DCC"/>
<stop offset="1" stop-color="#0099FF"/>
</linearGradient>
<clipPath id="clip0_942_2">
<rect width="20.001" height="20.501" fill="white"/>
</clipPath>
</defs>
</svg>

<svg xmlns="http://www.w3.org/2000/svg" width="20" height="21" fill="none" viewBox="0 0 20 21"><g clip-path="url(#a)"><path fill="#000" d="m10.001 14.372-8.978 5.526a.667.667 0 0 1-.918-.918l5.525-8.977-5.525-8.98a.668.668 0 0 1 .918-.92l8.978 5.525L18.979.103a.667.667 0 0 1 .918.918l-5.525 8.982 5.525 8.978a.667.667 0 0 1-.918.918l-8.978-5.525z"/><path fill="url(#b)" d="m10.001 14.872-8.978 5.526a.667.667 0 0 1-.918-.918l5.525-8.977-5.525-8.98a.668.668 0 0 1 .918-.92l8.978 5.525L18.979.603a.667.667 0 0 1 .918.918l-5.525 8.982 5.525 8.978a.667.667 0 0 1-.918.918l-8.978-5.525z"/></g><defs><linearGradient id="b" x1="15.798" x2="5" y1="20.499" y2=".505" gradientUnits="userSpaceOnUse"><stop stop-color="#f649c2"/><stop offset=".477" stop-color="#8e3dcc"/><stop offset="1" stop-color="#09f"/></linearGradient><clipPath id="a"><path fill="#fff" d="M0 0h20.001v20.501H0z"/></clipPath></defs></svg>
